;Project loidolt@gmail
;Created by Estlcam version 9 build 9.006
;Machining time about 12:21:41 AM hours

G90
M03 S24000
G00 X0.0000 Y0.0000 Z0.0000
G00 Z2.0000


;No. 1: Cutout 1
G00 X123.7690 Y93.0415
G00 Z0.5000
G01 Z-5.0000 F180 S24000
G01 X124.3390 Y96.0748 F1200
G01 X125.4960 Y99.6059
G01 X127.1040 Y102.9557
G01 X129.1355 Y106.0669
G01 X131.5557 Y108.8864
G01 X134.3232 Y111.3659
G01 X137.3907 Y113.4629
G01 X140.7057 Y115.1416
G01 X144.2114 Y116.3732
G01 X147.8478 Y117.1368
G01 X151.5529 Y117.4191
G01 X155.2630 Y117.2154
G01 X158.9149 Y116.5292
G01 X162.4459 Y115.3722
G01 X165.7957 Y113.7642
G01 X168.9070 Y111.7327
G01 X171.7265 Y109.3125
G01 X174.2059 Y106.5450
G01 X176.3029 Y103.4775
G01 X177.9816 Y100.1626
G01 X179.2133 Y96.6569
G01 X179.9768 Y93.0204
G01 X180.0597 Y91.9328
G00 Z0.0000
G01 X180.2591 Y89.3154
G01 X180.1415 Y87.1736
G01 Z-5.0000 F180
G01 X180.0554 Y85.6052 F1200
G01 X179.3692 Y81.9534
G01 X178.2122 Y78.4223
G01 X176.6042 Y75.0725
G01 X174.5727 Y71.9613
G01 X172.1525 Y69.1418
G01 X169.3850 Y66.6623
G01 X166.3175 Y64.5653
G01 X163.0026 Y62.8866
G01 X159.4969 Y61.6550
G01 X155.8604 Y60.8914
G01 X152.1554 Y60.6091
G01 X148.4452 Y60.8128
G01 X144.7934 Y61.4990
G01 X141.2624 Y62.6560
G01 X137.9125 Y64.2640
G01 X134.8013 Y66.2955
G01 X131.9818 Y68.7157
G01 X129.5023 Y71.4832
G01 X127.4053 Y74.5507
G01 X125.7266 Y77.8656
G01 X124.4950 Y81.3713
G01 X123.7315 Y85.0078
G01 X123.4814 Y88.2891
G00 Z0.0000
G01 X123.4491 Y88.7128
G01 X123.6528 Y92.4230
G01 X123.7690 Y93.0415
G00 Z-4.5000
G01 Z-10.0000 F180
G01 X124.3390 Y96.0748 F1200
G01 X125.4960 Y99.6059
G01 X127.1040 Y102.9557
G01 X129.1355 Y106.0669
G01 X131.5557 Y108.8864
G01 X134.3232 Y111.3659
G01 X137.3907 Y113.4629
G01 X140.7057 Y115.1416
G01 X144.2114 Y116.3732
G01 X147.8478 Y117.1368
G01 X151.5529 Y117.4191
G01 X155.2630 Y117.2154
G01 X158.9149 Y116.5292
G01 X162.4459 Y115.3722
G01 X165.7957 Y113.7642
G01 X168.9070 Y111.7327
G01 X171.7265 Y109.3125
G01 X174.2059 Y106.5450
G01 X176.3029 Y103.4775
G01 X177.9816 Y100.1626
G01 X179.2133 Y96.6569
G01 X179.9768 Y93.0204
G01 X180.0597 Y91.9328
G00 Z0.0000
G01 X180.2591 Y89.3154
G01 X180.1415 Y87.1736
G00 Z-4.5000
G01 Z-10.0000 F180
G01 X180.0554 Y85.6052 F1200
G01 X179.3692 Y81.9534
G01 X178.2122 Y78.4223
G01 X176.6042 Y75.0725
G01 X174.5727 Y71.9613
G01 X172.1525 Y69.1418
G01 X169.3850 Y66.6623
G01 X166.3175 Y64.5653
G01 X163.0026 Y62.8866
G01 X159.4969 Y61.6550
G01 X155.8604 Y60.8914
G01 X152.1554 Y60.6091
G01 X148.4452 Y60.8128
G01 X144.7934 Y61.4990
G01 X141.2624 Y62.6560
G01 X137.9125 Y64.2640
G01 X134.8013 Y66.2955
G01 X131.9818 Y68.7157
G01 X129.5023 Y71.4832
G01 X127.4053 Y74.5507
G01 X125.7266 Y77.8656
G01 X124.4950 Y81.3713
G01 X123.7315 Y85.0078
G01 X123.4814 Y88.2891
G00 Z0.0000
G01 X123.4491 Y88.7128
G01 X123.6528 Y92.4230
G01 X123.7690 Y93.0415
G00 Z-9.5000
G01 Z-15.0000 F180
G01 X124.3390 Y96.0748 F1200
G01 X125.4960 Y99.6059
G01 X127.1040 Y102.9557
G01 X129.1355 Y106.0669
G01 X131.5557 Y108.8864
G01 X134.3232 Y111.3659
G01 X137.3907 Y113.4629
G01 X140.7057 Y115.1416
G01 X144.2114 Y116.3732
G01 X147.8478 Y117.1368
G01 X151.5529 Y117.4191
G01 X155.2630 Y117.2154
G01 X158.9149 Y116.5292
G01 X162.4459 Y115.3722
G01 X165.7957 Y113.7642
G01 X168.9070 Y111.7327
G01 X171.7265 Y109.3125
G01 X174.2059 Y106.5450
G01 X176.3029 Y103.4775
G01 X177.9816 Y100.1626
G01 X179.2133 Y96.6569
G01 X179.9768 Y93.0204
G01 X180.0597 Y91.9328
G00 Z0.0000
G01 X180.2591 Y89.3154
G01 X180.1415 Y87.1736
G00 Z-9.5000
G01 Z-15.0000 F180
G01 X180.0554 Y85.6052 F1200
G01 X179.3692 Y81.9534
G01 X178.2122 Y78.4223
G01 X176.6042 Y75.0725
G01 X174.5727 Y71.9613
G01 X172.1525 Y69.1418
G01 X169.3850 Y66.6623
G01 X166.3175 Y64.5653
G01 X163.0026 Y62.8866
G01 X159.4969 Y61.6550
G01 X155.8604 Y60.8914
G01 X152.1554 Y60.6091
G01 X148.4452 Y60.8128
G01 X144.7934 Y61.4990
G01 X141.2624 Y62.6560
G01 X137.9125 Y64.2640
G01 X134.8013 Y66.2955
G01 X131.9818 Y68.7157
G01 X129.5023 Y71.4832
G01 X127.4053 Y74.5507
G01 X125.7266 Y77.8656
G01 X124.4950 Y81.3713
G01 X123.7315 Y85.0078
G01 X123.4814 Y88.2891
G00 Z0.0000
G01 X123.4491 Y88.7128
G01 X123.6528 Y92.4230
G01 X123.7690 Y93.0415
G00 Z2.0000


;No. 2: Cutout 2
G00 X236.7589 Y155.2872 Z2.0000
G00 Z0.5000
G01 Z-5.0000 F180
G01 X236.7541 Y108.6799 F1200
G01 X189.9441
G01 Y155.0303
G00 Z0.0000
G01 Y159.8003
G01 Z-5.0000 F180
G01 Y205.4899 F1200
G01 X236.7641 Y205.4999
G01 X236.7594 Y160.0572
G00 Z0.0000
G01 X236.7589 Y155.2872
G00 Z-4.5000
G01 Z-10.0000 F180
G01 X236.7541 Y108.6799 F1200
G01 X189.9441
G01 Y155.0303
G00 Z0.0000
G01 Y159.8003
G00 Z-4.5000
G01 Z-10.0000 F180
G01 Y205.4899 F1200
G01 X236.7641 Y205.4999
G01 X236.7594 Y160.0572
G00 Z0.0000
G01 X236.7589 Y155.2872
G00 Z-9.5000
G01 Z-15.0000 F180
G01 X236.7541 Y108.6799 F1200
G01 X189.9441
G01 Y155.0303
G00 Z0.0000
G01 Y159.8003
G00 Z-9.5000
G01 Z-15.0000 F180
G01 Y205.4899 F1200
G01 X236.7641 Y205.4999
G01 X236.7594 Y160.0572
G00 Z0.0000
G01 X236.7589 Y155.2872
G00 Z2.0000


;No. 3: Helical pocket 1
G00 X342.1572 Y157.4366 Z2.0000
G00 Z0.5000
G02 X340.0228 Y156.2043 Z-1.0000 I-1.4229 J0.0000 F180
G02 Y158.6689 Z-2.5000 I0.7115 J1.2323
G02 X342.1572 Y157.4366 Z-4.0000 I0.7115 J-1.2323
G02 X340.0228 Y156.2043 I-1.4229 J0.0000
G02 Y158.6689 I0.7115 J1.2323
G02 X342.1572 Y157.4366 I0.7115 J-1.2323
G00 Z2.0000


;No. 4: Helical pocket 2
G00 X259.0602 Y300.7983 Z2.0000
G00 Z0.5000
G02 X256.9258 Y299.5660 Z-1.0000 I-1.4229 J0.0000 F180
G02 Y302.0306 Z-2.5000 I0.7115 J1.2323
G02 X259.0602 Y300.7983 Z-4.0000 I0.7115 J-1.2323
G02 X256.9258 Y299.5660 I-1.4229 J0.0000
G02 Y302.0306 I0.7115 J1.2323
G02 X259.0602 Y300.7983 I0.7115 J-1.2323
G00 Z2.0000


;No. 5: Helical pocket 3
G00 X188.1508 Y308.2617 Z2.0000
G00 Z0.5000
G02 X186.0164 Y307.0294 Z-1.0000 I-1.4229 J0.0000 F180
G02 Y309.4940 Z-2.5000 I0.7115 J1.2323
G02 X188.1508 Y308.2617 Z-4.0000 I0.7115 J-1.2323
G02 X186.0164 Y307.0294 I-1.4229 J0.0000
G02 Y309.4940 I0.7115 J1.2323
G02 X188.1508 Y308.2617 I0.7115 J-1.2323
G00 Z2.0000


;No. 6: Helical pocket 4
G00 X93.2854 Y300.3718 Z2.0000
G00 Z0.5000
G02 X91.1510 Y299.1395 Z-1.0000 I-1.4229 J0.0000 F180
G02 Y301.6042 Z-2.5000 I0.7115 J1.2323
G02 X93.2854 Y300.3718 Z-4.0000 I0.7115 J-1.2323
G02 X91.1510 Y299.1395 I-1.4229 J0.0000
G02 Y301.6042 I0.7115 J1.2323
G02 X93.2854 Y300.3718 I0.7115 J-1.2323
G00 Z2.0000


;No. 7: Helical pocket 5
G00 X39.2865 Y221.9712 Z2.0000
G00 Z0.5000
G02 X37.1521 Y220.7389 Z-1.0000 I-1.4229 J0.0000 F180
G02 Y223.2035 Z-2.5000 I0.7115 J1.2323
G02 X39.2865 Y221.9712 Z-4.0000 I0.7115 J-1.2323
G02 X37.1521 Y220.7389 I-1.4229 J0.0000
G02 Y223.2035 I0.7115 J1.2323
G02 X39.2865 Y221.9712 I0.7115 J-1.2323
G00 Z2.0000


;No. 8: Helical pocket 6
G00 X10.5195 Y156.7309 Z2.0000
G00 Z0.5000
G02 X8.3851 Y155.4986 Z-1.0000 I-1.4229 J0.0000 F180
G02 Y157.9632 Z-2.5000 I0.7115 J1.2323
G02 X10.5195 Y156.7309 Z-4.0000 I0.7115 J-1.2323
G02 X8.3851 Y155.4986 I-1.4229 J0.0000
G02 Y157.9632 I0.7115 J1.2323
G02 X10.5195 Y156.7309 I0.7115 J-1.2323
G00 Z2.0000


;No. 9: Helical pocket 7
G00 X39.2857 Y91.4958 Z2.0000
G00 Z0.5000
G02 X37.1512 Y90.2635 Z-1.0000 I-1.4229 J0.0000 F180
G02 Y92.7281 Z-2.5000 I0.7115 J1.2323
G02 X39.2857 Y91.4958 Z-4.0000 I0.7115 J-1.2323
G02 X37.1512 Y90.2635 I-1.4229 J0.0000
G02 Y92.7281 I0.7115 J1.2323
G02 X39.2857 Y91.4958 I0.7115 J-1.2323
G00 Z2.0000


;No. 10: Helical pocket 8
G00 X93.6214 Y13.3720 Z2.0000
G00 Z0.5000
G02 X91.4870 Y12.1397 Z-1.0000 I-1.4229 J0.0000 F180
G02 Y14.6043 Z-2.5000 I0.7115 J1.2323
G02 X93.6214 Y13.3720 Z-4.0000 I0.7115 J-1.2323
G02 X91.4870 Y12.1397 I-1.4229 J0.0000
G02 Y14.6043 I0.7115 J1.2323
G02 X93.6214 Y13.3720 I0.7115 J-1.2323
G00 Z2.0000


;No. 11: Helical pocket 9
G00 X259.3962 Y13.8041 Z2.0000
G00 Z0.5000
G02 X257.2618 Y12.5718 Z-1.0000 I-1.4229 J0.0000 F180
G02 Y15.0364 Z-2.5000 I0.7115 J1.2323
G02 X259.3962 Y13.8041 Z-4.0000 I0.7115 J-1.2323
G02 X257.2618 Y12.5718 I-1.4229 J0.0000
G02 Y15.0364 I0.7115 J1.2323
G02 X259.3962 Y13.8041 I0.7115 J-1.2323
G00 Z2.0000


;No. 12: Drill 1
G00 X340.7343 Y157.4366 Z2.0000
G00 Z-3.5000
G01 Z-9.0000 F180
G00 Z-3.5000
G00 Z-8.5000
G01 Z-14.0000
G00 Z-3.5000
G00 Z-13.5000
G01 Z-15.0000
G00 Z2.0000


;No. 13: Drill 2
G00 X257.6373 Y300.7983 Z2.0000
G00 Z-3.5000
G01 Z-9.0000 F180
G00 Z-3.5000
G00 Z-8.5000
G01 Z-14.0000
G00 Z-3.5000
G00 Z-13.5000
G01 Z-15.0000
G00 Z2.0000


;No. 14: Drill 3
G00 X186.7279 Y308.2617 Z2.0000
G00 Z-3.5000
G01 Z-9.0000 F180
G00 Z-3.5000
G00 Z-8.5000
G01 Z-14.0000
G00 Z-3.5000
G00 Z-13.5000
G01 Z-15.0000
G00 Z2.0000


;No. 15: Drill 4
G00 X91.8625 Y300.3718 Z2.0000
G00 Z-3.5000
G01 Z-9.0000 F180
G00 Z-3.5000
G00 Z-8.5000
G01 Z-14.0000
G00 Z-3.5000
G00 Z-13.5000
G01 Z-15.0000
G00 Z2.0000


;No. 16: Drill 5
G00 X37.8636 Y221.9712 Z2.0000
G00 Z-3.5000
G01 Z-9.0000 F180
G00 Z-3.5000
G00 Z-8.5000
G01 Z-14.0000
G00 Z-3.5000
G00 Z-13.5000
G01 Z-15.0000
G00 Z2.0000


;No. 17: Drill 6
G00 X9.0966 Y156.7309 Z2.0000
G00 Z-3.5000
G01 Z-9.0000 F180
G00 Z-3.5000
G00 Z-8.5000
G01 Z-14.0000
G00 Z-3.5000
G00 Z-13.5000
G01 Z-15.0000
G00 Z2.0000


;No. 18: Drill 7
G00 X37.8627 Y91.4958 Z2.0000
G00 Z-3.5000
G01 Z-9.0000 F180
G00 Z-3.5000
G00 Z-8.5000
G01 Z-14.0000
G00 Z-3.5000
G00 Z-13.5000
G01 Z-15.0000
G00 Z2.0000


;No. 19: Drill 8
G00 X92.1984 Y13.3720 Z2.0000
G00 Z-3.5000
G01 Z-9.0000 F180
G00 Z-3.5000
G00 Z-8.5000
G01 Z-14.0000
G00 Z-3.5000
G00 Z-13.5000
G01 Z-15.0000
G00 Z2.0000


;No. 20: Drill 9
G00 X257.9733 Y13.8041 Z2.0000
G00 Z-3.5000
G01 Z-9.0000 F180
G00 Z-3.5000
G00 Z-8.5000
G01 Z-14.0000
G00 Z-3.5000
G00 Z-13.5000
G01 Z-15.0000
G00 Z2.0000


;No. 21: Part 1
G00 X311.0353 Y239.1676 Z2.0000
G00 Z0.5000
G01 Z-5.0000 F180
G01 X279.1469 Y294.2900 F1200
G01 X277.0363 Y297.5867
G01 X274.8155 Y300.4758
G01 X272.2485 Y303.2812
G01 X269.3246 Y305.9535
G01 X266.4317 Y308.1694
G01 X263.2261 Y310.2148
G01 X259.7102 Y312.0393
G01 X256.3423 Y313.4309
G01 X252.7165 Y314.5770
G01 X248.8482 Y315.4293
G01 X245.2349 Y315.9018
G01 X241.3467 Y316.0719
G01 X180.1786 Y316.0180
G00 Z0.0000
G01 X171.9986 Y316.0108
G01 Z-5.0000 F180
G01 X108.2749 Y315.9546 F1200
G01 X104.6344 Y315.7925
G01 X100.8640 Y315.2990
G01 X97.1509 Y314.4786
G01 X93.5235 Y313.3378
G01 X90.0093 Y311.8852
G01 X86.4981 Y310.0515
G01 X83.4265 Y308.0910
G01 X80.4080 Y305.7783
G01 X77.6025 Y303.2113
G01 X74.9302 Y300.2874
G01 X72.7144 Y297.3945
G01 X70.6818 Y294.2091
G01 X43.8606 Y247.7809
G00 Z0.0000
G01 X39.7688 Y240.6978
G01 Z-5.0000 F180
G01 X4.2319 Y179.1825 F1200
G01 X2.4426 Y175.4320
G01 X1.0510 Y172.0641
G01 X-0.0951 Y168.4383
G01 X-0.9208 Y164.7265
G01 X-1.4199 Y160.9567
G01 X-1.5885 Y157.1579
G01 X-1.4254 Y153.3588
G01 X-0.9033 Y149.4322
G01 X-0.1115 Y145.8753
G01 X1.0293 Y142.2478
G01 X2.4820 Y138.7336
G01 X4.2788 Y135.2813
G01 X34.7269 Y82.6485
G00 Z0.0000
G01 X38.8230 Y75.5679
G01 Z-5.0000 F180
G01 X70.8581 Y20.1919 F1200
G01 X72.9687 Y16.8952
G01 X75.1895 Y14.0061
G01 X77.7565 Y11.2007
G01 X80.6804 Y8.5284
G01 X83.5733 Y6.3125
G01 X86.7789 Y4.2671
G01 X90.2949 Y2.4426
G01 X93.6627 Y1.0510
G01 X97.2885 Y-0.0951
G01 X101.1568 Y-0.9474
G01 X104.7701 Y-1.4199
G01 X108.6583 Y-1.5900
G01 X173.7322 Y-1.5326
G00 Z0.0000
G01 X181.9122 Y-1.5254
G01 Z-5.0000 F180
G01 X241.7302 Y-1.4727 F1200
G01 X245.3706 Y-1.3106
G01 X249.1410 Y-0.8170
G01 X252.8541 Y0.0033
G01 X256.4815 Y1.1441
G01 X259.9958 Y2.5968
G01 X263.5069 Y4.4304
G01 X266.5786 Y6.3910
G01 X269.5971 Y8.7036
G01 X272.4025 Y11.2706
G01 X275.0748 Y14.1945
G01 X277.2906 Y17.0874
G01 X279.3232 Y20.2728
G01 X309.6540 Y72.9098
G00 Z0.0000
G01 X313.7380 Y79.9973
G01 Z-5.0000 F180
G01 X345.7626 Y135.5738 F1200
G01 X347.5624 Y139.0499
G01 X348.9540 Y142.4178
G01 X350.1001 Y146.0436
G01 X350.9259 Y149.7554
G01 X351.4249 Y153.5252
G01 X351.5936 Y157.3240
G01 X351.4305 Y161.1231
G01 X350.9083 Y165.0497
G01 X350.1165 Y168.6067
G01 X348.9757 Y172.2341
G01 X347.5231 Y175.7483
G01 X345.7262 Y179.2007
G01 X315.1314 Y232.0870
G00 Z0.0000
G01 X311.0353 Y239.1676
G00 Z-4.5000
G01 Z-10.0000 F180
G01 X279.1469 Y294.2900 F1200
G01 X277.0363 Y297.5867
G01 X274.8155 Y300.4758
G01 X272.2485 Y303.2812
G01 X269.3246 Y305.9535
G01 X266.4317 Y308.1694
G01 X263.2261 Y310.2148
G01 X259.7102 Y312.0393
G01 X256.3423 Y313.4309
G01 X252.7165 Y314.5770
G01 X248.8482 Y315.4293
G01 X245.2349 Y315.9018
G01 X241.3467 Y316.0719
G01 X180.1786 Y316.0180
G00 Z0.0000
G01 X171.9986 Y316.0108
G00 Z-4.5000
G01 Z-10.0000 F180
G01 X108.2749 Y315.9546 F1200
G01 X104.6344 Y315.7925
G01 X100.8640 Y315.2990
G01 X97.1509 Y314.4786
G01 X93.5235 Y313.3378
G01 X90.0093 Y311.8852
G01 X86.4981 Y310.0515
G01 X83.4265 Y308.0910
G01 X80.4080 Y305.7783
G01 X77.6025 Y303.2113
G01 X74.9302 Y300.2874
G01 X72.7144 Y297.3945
G01 X70.6818 Y294.2091
G01 X43.8606 Y247.7809
G00 Z0.0000
G01 X39.7688 Y240.6978
G00 Z-4.5000
G01 Z-10.0000 F180
G01 X4.2319 Y179.1825 F1200
G01 X2.4426 Y175.4320
G01 X1.0510 Y172.0641
G01 X-0.0951 Y168.4383
G01 X-0.9208 Y164.7265
G01 X-1.4199 Y160.9567
G01 X-1.5885 Y157.1579
G01 X-1.4254 Y153.3588
G01 X-0.9033 Y149.4322
G01 X-0.1115 Y145.8753
G01 X1.0293 Y142.2478
G01 X2.4820 Y138.7336
G01 X4.2788 Y135.2813
G01 X34.7269 Y82.6485
G00 Z0.0000
G01 X38.8230 Y75.5679
G00 Z-4.5000
G01 Z-10.0000 F180
G01 X70.8581 Y20.1919 F1200
G01 X72.9687 Y16.8952
G01 X75.1895 Y14.0061
G01 X77.7565 Y11.2007
G01 X80.6804 Y8.5284
G01 X83.5733 Y6.3125
G01 X86.7789 Y4.2671
G01 X90.2949 Y2.4426
G01 X93.6627 Y1.0510
G01 X97.2885 Y-0.0951
G01 X101.1568 Y-0.9474
G01 X104.7701 Y-1.4199
G01 X108.6583 Y-1.5900
G01 X173.7322 Y-1.5326
G00 Z0.0000
G01 X181.9122 Y-1.5254
G00 Z-4.5000
G01 Z-10.0000 F180
G01 X241.7302 Y-1.4727 F1200
G01 X245.3706 Y-1.3106
G01 X249.1410 Y-0.8170
G01 X252.8541 Y0.0033
G01 X256.4815 Y1.1441
G01 X259.9958 Y2.5968
G01 X263.5069 Y4.4304
G01 X266.5786 Y6.3910
G01 X269.5971 Y8.7036
G01 X272.4025 Y11.2706
G01 X275.0748 Y14.1945
G01 X277.2906 Y17.0874
G01 X279.3232 Y20.2728
G01 X309.6540 Y72.9098
G00 Z0.0000
G01 X313.7380 Y79.9973
G00 Z-4.5000
G01 Z-10.0000 F180
G01 X345.7626 Y135.5738 F1200
G01 X347.5624 Y139.0499
G01 X348.9540 Y142.4178
G01 X350.1001 Y146.0436
G01 X350.9259 Y149.7554
G01 X351.4249 Y153.5252
G01 X351.5936 Y157.3240
G01 X351.4305 Y161.1231
G01 X350.9083 Y165.0497
G01 X350.1165 Y168.6067
G01 X348.9757 Y172.2341
G01 X347.5231 Y175.7483
G01 X345.7262 Y179.2007
G01 X315.1314 Y232.0870
G00 Z0.0000
G01 X311.0353 Y239.1676
G00 Z-9.5000
G01 Z-15.0000 F180
G01 X279.1469 Y294.2900 F1200
G01 X277.0363 Y297.5867
G01 X274.8155 Y300.4758
G01 X272.2485 Y303.2812
G01 X269.3246 Y305.9535
G01 X266.4317 Y308.1694
G01 X263.2261 Y310.2148
G01 X259.7102 Y312.0393
G01 X256.3423 Y313.4309
G01 X252.7165 Y314.5770
G01 X248.8482 Y315.4293
G01 X245.2349 Y315.9018
G01 X241.3467 Y316.0719
G01 X180.1786 Y316.0180
G00 Z0.0000
G01 X171.9986 Y316.0108
G00 Z-9.5000
G01 Z-15.0000 F180
G01 X108.2749 Y315.9546 F1200
G01 X104.6344 Y315.7925
G01 X100.8640 Y315.2990
G01 X97.1509 Y314.4786
G01 X93.5235 Y313.3378
G01 X90.0093 Y311.8852
G01 X86.4981 Y310.0515
G01 X83.4265 Y308.0910
G01 X80.4080 Y305.7783
G01 X77.6025 Y303.2113
G01 X74.9302 Y300.2874
G01 X72.7144 Y297.3945
G01 X70.6818 Y294.2091
G01 X43.8606 Y247.7809
G00 Z0.0000
G01 X39.7688 Y240.6978
G00 Z-9.5000
G01 Z-15.0000 F180
G01 X4.2319 Y179.1825 F1200
G01 X2.4426 Y175.4320
G01 X1.0510 Y172.0641
G01 X-0.0951 Y168.4383
G01 X-0.9208 Y164.7265
G01 X-1.4199 Y160.9567
G01 X-1.5885 Y157.1579
G01 X-1.4254 Y153.3588
G01 X-0.9033 Y149.4322
G01 X-0.1115 Y145.8753
G01 X1.0293 Y142.2478
G01 X2.4820 Y138.7336
G01 X4.2788 Y135.2813
G01 X34.7269 Y82.6485
G00 Z0.0000
G01 X38.8230 Y75.5679
G00 Z-9.5000
G01 Z-15.0000 F180
G01 X70.8581 Y20.1919 F1200
G01 X72.9687 Y16.8952
G01 X75.1895 Y14.0061
G01 X77.7565 Y11.2007
G01 X80.6804 Y8.5284
G01 X83.5733 Y6.3125
G01 X86.7789 Y4.2671
G01 X90.2949 Y2.4426
G01 X93.6627 Y1.0510
G01 X97.2885 Y-0.0951
G01 X101.1568 Y-0.9474
G01 X104.7701 Y-1.4199
G01 X108.6583 Y-1.5900
G01 X173.7322 Y-1.5326
G00 Z0.0000
G01 X181.9122 Y-1.5254
G00 Z-9.5000
G01 Z-15.0000 F180
G01 X241.7302 Y-1.4727 F1200
G01 X245.3706 Y-1.3106
G01 X249.1410 Y-0.8170
G01 X252.8541 Y0.0033
G01 X256.4815 Y1.1441
G01 X259.9958 Y2.5968
G01 X263.5069 Y4.4304
G01 X266.5786 Y6.3910
G01 X269.5971 Y8.7036
G01 X272.4025 Y11.2706
G01 X275.0748 Y14.1945
G01 X277.2906 Y17.0874
G01 X279.3232 Y20.2728
G01 X309.6540 Y72.9098
G00 Z0.0000
G01 X313.7380 Y79.9973
G00 Z-9.5000
G01 Z-15.0000 F180
G01 X345.7626 Y135.5738 F1200
G01 X347.5624 Y139.0499
G01 X348.9540 Y142.4178
G01 X350.1001 Y146.0436
G01 X350.9259 Y149.7554
G01 X351.4249 Y153.5252
G01 X351.5936 Y157.3240
G01 X351.4305 Y161.1231
G01 X350.9083 Y165.0497
G01 X350.1165 Y168.6067
G01 X348.9757 Y172.2341
G01 X347.5231 Y175.7483
G01 X345.7262 Y179.2007
G01 X315.1314 Y232.0870
G00 Z0.0000
G01 X311.0353 Y239.1676
G00 Z2.0000
G00 X0.0000 Y0.0000

M05
