;Project loidolt@gmail
;Created by Estlcam version 9 build 9.006
;Machining time about 12:02:26 AM hours

G90
M03 S24000
G00 X0.0000 Y0.0000 Z0.0000
G00 Z2.0000


;No. 1: Drill 5
G00 X12.0735 Y132.1910
G00 Z0.5000
G01 Z-5.0000 F180 S24000
G00 Z2.0000


;No. 2: Drill 6
G00 X56.0735 Y132.1910 Z2.0000
G00 Z0.5000
G01 Z-5.0000 F180
G00 Z2.0000


;No. 3: Drill 7
G00 X12.0735 Y9.1910 Z2.0000
G00 Z0.5000
G01 Z-5.0000 F180
G00 Z2.0000


;No. 4: Drill 8
G00 X56.0735 Y9.1910 Z2.0000
G00 Z0.5000
G01 Z-5.0000 F180
G00 Z2.0000


;No. 5: Part 2
G00 X65.6635 Y76.2497 Z2.0000
G00 Z0.5000
G01 Z-5.0000 F180
G01 Y137.1910 F1200
G01 X65.6318 Y137.5068
G01 X65.5380 Y137.8101
G03 X64.0535 Y138.7810 I-1.4649 J-0.6196
G01 X34.9923
G00 Z0.0000
G01 X30.2223
G01 Z-5.0000 F180
G01 X4.0735 F1200
G03 X2.5415 Y137.6163 I0.0000 J-1.5900
G01 X2.5067 Y137.4612
G01 X2.4835 Y137.1710
G01 Y66.6462
G00 Z0.0000
G01 Y61.8762
G01 Z-5.0000 F180
G01 Y4.1910 F1200
G01 X2.5152 Y3.8751
G01 X2.6090 Y3.5718
G03 X4.0935 Y2.6010 I1.4649 J0.6196
G01 X33.6629
G00 Z0.0000
G01 X38.4329
G01 Z-5.0000 F180
G01 X64.0735 F1200
G03 X65.4905 Y3.4697 I0.0000 J1.5900
G03 X65.6635 Y4.2110 I-1.4197 J0.7221
G01 Y71.4797
G00 Z0.0000
G01 Y76.2497
G00 Z2.0000
G00 X0.0000 Y0.0000

M05
