;Project loidolt@gmail
;Created by Estlcam version 9 build 9.006
;Machining time about 12:17:24 AM hours

G90
M03 S24000
G00 X0.0000 Y0.0000 Z0.0000
G00 Z2.0000


;No. 1: Pocketing: Cutout 1
G00 X19.3036 Y107.2070 Z2.0000
G00 Z0.5000
G01 Z-4.0000 F180 S24000
G01 X9.9080 F1200
G01 Y108.6380
G01 X31.9044
G01 X44.5052 Y110.0690
G01 X9.9080
G01 Y111.5000
G01 X50.0920
G01 Y112.9310
G01 X15.4913
G01 X28.0841 Y114.3620
G01 X50.0920
G01 Y115.7930
G01 X40.6769
G00 Z2.0000


;No. 2: Pocket side wall: Cutout 1
G00 X9.5900 Y105.7809 Z2.0000
G00 Z0.5000
G01 Z-4.0000 F180
G01 X9.5936 Y112.5809 F1200
G01 X50.4100 Y117.2191
G01 X50.4064 Y110.4191
G01 X9.5900 Y105.7809
G00 Z2.0000


;No. 3: Pocketing: Cutout 2
G00 X50.0920 Y96.5000 Z2.0000
G00 Z0.5000
G01 Z-4.0000 F180
G01 X9.9080 F1200
G01 Y97.2965
G01 X15.4913 Y97.9310
G01 X50.0920
G01 Y99.3620
G01 X28.0841
G01 X40.6769 Y100.7930
G01 X50.0920
G00 Z2.0000
G00 X9.9080 Y96.5000
G00 Z0.5000
G01 Z-4.0000
G01 Y95.0690
G01 X44.5052
G01 X31.9044 Y93.6380
G01 X9.9080
G01 Y92.2070
G01 X19.3036
G00 Z2.0000


;No. 4: Pocket side wall: Cutout 2
G00 X9.5900 Y90.7809 Z2.0000
G00 Z0.5000
G01 Z-4.0000 F180
G01 X9.5936 Y97.5809 F1200
G01 X50.4100 Y102.2191
G01 X50.4064 Y95.4191
G01 X9.5900 Y90.7809
G00 Z2.0000


;No. 5: Pocketing: Cutout 3
G00 X50.0920 Y81.5000 Z2.0000
G00 Z0.5000
G01 Z-4.0000 F180
G01 X9.9080 F1200
G01 Y82.2965
G01 X15.4913 Y82.9310
G01 X50.0920
G01 Y84.3620
G01 X28.0841
G01 X40.6769 Y85.7930
G01 X50.0920
G00 Z2.0000
G00 X9.9080 Y81.5000
G00 Z0.5000
G01 Z-4.0000
G01 Y80.0690
G01 X44.5052
G01 X31.9044 Y78.6380
G01 X9.9080
G01 Y77.2070
G01 X19.3036
G00 Z2.0000


;No. 6: Pocket side wall: Cutout 3
G00 X9.5900 Y75.7809 Z2.0000
G00 Z0.5000
G01 Z-4.0000 F180
G01 X9.5936 Y82.5809 F1200
G01 X50.4100 Y87.2191
G01 X50.4064 Y80.4191
G01 X9.5900 Y75.7809
G00 Z2.0000


;No. 7: Pocketing: Cutout 4
G00 X50.0920 Y66.5000 Z2.0000
G00 Z0.5000
G01 Z-4.0000 F180
G01 X9.9080 F1200
G01 Y67.2965
G01 X15.4913 Y67.9310
G01 X50.0920
G01 Y69.3620
G01 X28.0841
G01 X40.6769 Y70.7930
G01 X50.0920
G00 Z2.0000
G00 X44.5052 Y66.5000
G00 Z0.5000
G01 Z-4.0000
G01 Y65.0690
G01 X9.9080
G01 Y63.6380
G01 X31.9044
G01 X19.3036 Y62.2070
G01 X9.9080
G00 Z2.0000


;No. 8: Pocket side wall: Cutout 4
G00 X9.5900 Y60.7809 Z2.0000
G00 Z0.5000
G01 Z-4.0000 F180
G01 X9.5936 Y67.5809 F1200
G01 X50.4100 Y72.2191
G01 X50.4064 Y65.4191
G01 X9.5900 Y60.7809
G00 Z2.0000


;No. 9: Pocketing: Cutout 5
G00 X50.0920 Y51.5000 Z2.0000
G00 Z0.5000
G01 Z-4.0000 F180
G01 X9.9080 F1200
G01 Y52.2965
G01 X15.4913 Y52.9310
G01 X50.0920
G01 Y54.3620
G01 X28.0841
G01 X40.6769 Y55.7930
G01 X50.0920
G00 Z2.0000
G00 X44.5052 Y51.5000
G00 Z0.5000
G01 Z-4.0000
G01 Y50.0690
G01 X9.9080
G01 Y48.6380
G01 X31.9044
G01 X19.3036 Y47.2070
G01 X9.9080
G00 Z2.0000


;No. 10: Pocket side wall: Cutout 5
G00 X9.5900 Y45.7809 Z2.0000
G00 Z0.5000
G01 Z-4.0000 F180
G01 X9.5936 Y52.5809 F1200
G01 X50.4100 Y57.2191
G01 X50.4064 Y50.4191
G01 X9.5900 Y45.7809
G00 Z2.0000


;No. 11: Pocketing: Cutout 6
G00 X50.0920 Y36.5000 Z2.0000
G00 Z0.5000
G01 Z-4.0000 F180
G01 X9.9080 F1200
G01 Y37.2965
G01 X15.4913 Y37.9310
G01 X50.0920
G01 Y39.3620
G01 X28.0841
G01 X40.6769 Y40.7930
G01 X50.0920
G00 Z2.0000
G00 X44.5052 Y36.5000
G00 Z0.5000
G01 Z-4.0000
G01 Y35.0690
G01 X9.9080
G01 Y33.6380
G01 X31.9044
G01 X19.3036 Y32.2070
G01 X9.9080
G00 Z2.0000


;No. 12: Pocket side wall: Cutout 6
G00 X9.5900 Y30.7809 Z2.0000
G00 Z0.5000
G01 Z-4.0000 F180
G01 X9.5936 Y37.5809 F1200
G01 X50.4100 Y42.2191
G01 X50.4064 Y35.4191
G01 X9.5900 Y30.7809
G00 Z2.0000


;No. 13: Pocketing: Cutout 7
G00 X50.0920 Y21.5000 Z2.0000
G00 Z0.5000
G01 Z-4.0000 F180
G01 X9.9080 F1200
G01 Y22.2965
G01 X15.4913 Y22.9310
G01 X50.0920
G01 Y24.3620
G01 X28.0841
G01 X40.6769 Y25.7930
G01 X50.0920
G00 Z2.0000
G00 X44.5052 Y21.5000
G00 Z0.5000
G01 Z-4.0000
G01 Y20.0690
G01 X9.9080
G01 Y18.6380
G01 X31.9044
G01 X19.3036 Y17.2070
G01 X9.9080
G00 Z2.0000


;No. 14: Pocket side wall: Cutout 7
G00 X9.5900 Y15.7809 Z2.0000
G00 Z0.5000
G01 Z-4.0000 F180
G01 X9.5936 Y22.5809 F1200
G01 X50.4100 Y27.2191
G01 X50.4064 Y20.4191
G01 X9.5900 Y15.7809
G00 Z2.0000


;No. 15: Drill 4
G00 X52.0000 Y5.0000 Z2.0000
G00 Z0.5000
G01 Z-4.0000 F180
G00 Z2.0000


;No. 16: Drill 3
G00 X8.0000 Y5.0000 Z2.0000
G00 Z0.5000
G01 Z-4.0000 F180
G00 Z2.0000


;No. 17: Drill 1
G00 X8.0000 Y128.0000 Z2.0000
G00 Z0.5000
G01 Z-4.0000 F180
G00 Z2.0000


;No. 18: Drill 2
G00 X52.0000 Y128.0000 Z2.0000
G00 Z0.5000
G01 Z-4.0000 F180
G00 Z2.0000


;No. 19: Part 1
G00 X61.5900 Y70.8156 Z2.0000
G00 Z0.5000
G01 Z-4.0000 F180
G01 Y133.0000 F1200
G01 X61.5583 Y133.3159
G01 X61.4645 Y133.6192
G03 X59.9800 Y134.5900 I-1.4649 J-0.6196
G01 X32.0142
G00 Z0.0000
G01 X27.2442
G01 Z-4.0000 F180
G01 X0.0000 F1200
G03 X-1.4170 Y133.7212 I0.0000 J-1.5900
G03 X-1.5900 Y132.9800 I1.4197 J-0.7221
G01 Y71.0544
G00 Z0.0000
G01 Y66.2844
G01 Z-4.0000 F180
G01 Y0.0000 F1200
G01 X-1.5583 Y-0.3159
G01 X-1.4645 Y-0.6192
G03 X0.0200 Y-1.5900 I1.4649 J0.6196
G01 X28.1987
G00 Z0.0000
G01 X32.9687
G01 Z-4.0000 F180
G01 X60.0000 F1200
G03 X61.4170 Y-0.7212 I0.0000 J1.5900
G03 X61.5900 Y0.0200 I-1.4197 J0.7221
G01 Y66.0456
G00 Z0.0000
G01 Y70.8156
G00 Z2.0000


;No. 20: Pocketing: Cutout 1
G00 X99.3036 Y107.2070 Z2.0000
G00 Z0.5000
G01 Z-4.0000 F180
G01 X89.9080 F1200
G01 Y108.6380
G01 X111.9044
G01 X124.5052 Y110.0690
G01 X89.9080
G01 Y111.5000
G01 X130.0920
G01 Y112.9310
G01 X95.4913
G01 X108.0841 Y114.3620
G01 X130.0920
G01 Y115.7930
G01 X120.6769
G00 Z2.0000


;No. 21: Pocket side wall: Cutout 1
G00 X89.5900 Y105.7809 Z2.0000
G00 Z0.5000
G01 Z-4.0000 F180
G01 X89.5936 Y112.5809 F1200
G01 X130.4100 Y117.2191
G01 X130.4064 Y110.4191
G01 X89.5900 Y105.7809
G00 Z2.0000


;No. 22: Pocketing: Cutout 2
G00 X130.0920 Y96.5000 Z2.0000
G00 Z0.5000
G01 Z-4.0000 F180
G01 X89.9080 F1200
G01 Y97.2965
G01 X95.4913 Y97.9310
G01 X130.0920
G01 Y99.3620
G01 X108.0841
G01 X120.6769 Y100.7930
G01 X130.0920
G00 Z2.0000
G00 X89.9080 Y96.5000
G00 Z0.5000
G01 Z-4.0000
G01 Y95.0690
G01 X124.5052
G01 X111.9044 Y93.6380
G01 X89.9080
G01 Y92.2070
G01 X99.3036
G00 Z2.0000


;No. 23: Pocket side wall: Cutout 2
G00 X89.5900 Y90.7809 Z2.0000
G00 Z0.5000
G01 Z-4.0000 F180
G01 X89.5936 Y97.5809 F1200
G01 X130.4100 Y102.2191
G01 X130.4064 Y95.4191
G01 X89.5900 Y90.7809
G00 Z2.0000


;No. 24: Pocketing: Cutout 3
G00 X130.0920 Y81.5000 Z2.0000
G00 Z0.5000
G01 Z-4.0000 F180
G01 X89.9080 F1200
G01 Y82.2965
G01 X95.4913 Y82.9310
G01 X130.0920
G01 Y84.3620
G01 X108.0841
G01 X120.6769 Y85.7930
G01 X130.0920
G00 Z2.0000
G00 X89.9080 Y81.5000
G00 Z0.5000
G01 Z-4.0000
G01 Y80.0690
G01 X124.5052
G01 X111.9044 Y78.6380
G01 X89.9080
G01 Y77.2070
G01 X99.3036
G00 Z2.0000


;No. 25: Pocket side wall: Cutout 3
G00 X89.5900 Y75.7809 Z2.0000
G00 Z0.5000
G01 Z-4.0000 F180
G01 X89.5936 Y82.5809 F1200
G01 X130.4100 Y87.2191
G01 X130.4064 Y80.4191
G01 X89.5900 Y75.7809
G00 Z2.0000


;No. 26: Pocketing: Cutout 4
G00 X130.0920 Y66.5000 Z2.0000
G00 Z0.5000
G01 Z-4.0000 F180
G01 X89.9080 F1200
G01 Y67.2965
G01 X95.4913 Y67.9310
G01 X130.0920
G01 Y69.3620
G01 X108.0841
G01 X120.6769 Y70.7930
G01 X130.0920
G00 Z2.0000
G00 X124.5052 Y66.5000
G00 Z0.5000
G01 Z-4.0000
G01 Y65.0690
G01 X89.9080
G01 Y63.6380
G01 X111.9044
G01 X99.3036 Y62.2070
G01 X89.9080
G00 Z2.0000


;No. 27: Pocket side wall: Cutout 4
G00 X89.5900 Y60.7809 Z2.0000
G00 Z0.5000
G01 Z-4.0000 F180
G01 X89.5936 Y67.5809 F1200
G01 X130.4100 Y72.2191
G01 X130.4064 Y65.4191
G01 X89.5900 Y60.7809
G00 Z2.0000


;No. 28: Pocketing: Cutout 5
G00 X130.0920 Y51.5000 Z2.0000
G00 Z0.5000
G01 Z-4.0000 F180
G01 X89.9080 F1200
G01 Y52.2965
G01 X95.4913 Y52.9310
G01 X130.0920
G01 Y54.3620
G01 X108.0841
G01 X120.6769 Y55.7930
G01 X130.0920
G00 Z2.0000
G00 X124.5052 Y51.5000
G00 Z0.5000
G01 Z-4.0000
G01 Y50.0690
G01 X89.9080
G01 Y48.6380
G01 X111.9044
G01 X99.3036 Y47.2070
G01 X89.9080
G00 Z2.0000


;No. 29: Pocket side wall: Cutout 5
G00 X89.5900 Y45.7809 Z2.0000
G00 Z0.5000
G01 Z-4.0000 F180
G01 X89.5936 Y52.5809 F1200
G01 X130.4100 Y57.2191
G01 X130.4064 Y50.4191
G01 X89.5900 Y45.7809
G00 Z2.0000


;No. 30: Pocketing: Cutout 6
G00 X130.0920 Y36.5000 Z2.0000
G00 Z0.5000
G01 Z-4.0000 F180
G01 X89.9080 F1200
G01 Y37.2965
G01 X95.4913 Y37.9310
G01 X130.0920
G01 Y39.3620
G01 X108.0841
G01 X120.6769 Y40.7930
G01 X130.0920
G00 Z2.0000
G00 X124.5052 Y36.5000
G00 Z0.5000
G01 Z-4.0000
G01 Y35.0690
G01 X89.9080
G01 Y33.6380
G01 X111.9044
G01 X99.3036 Y32.2070
G01 X89.9080
G00 Z2.0000


;No. 31: Pocket side wall: Cutout 6
G00 X89.5900 Y30.7809 Z2.0000
G00 Z0.5000
G01 Z-4.0000 F180
G01 X89.5936 Y37.5809 F1200
G01 X130.4100 Y42.2191
G01 X130.4064 Y35.4191
G01 X89.5900 Y30.7809
G00 Z2.0000


;No. 32: Pocketing: Cutout 7
G00 X130.0920 Y21.5000 Z2.0000
G00 Z0.5000
G01 Z-4.0000 F180
G01 X89.9080 F1200
G01 Y22.2965
G01 X95.4913 Y22.9310
G01 X130.0920
G01 Y24.3620
G01 X108.0841
G01 X120.6769 Y25.7930
G01 X130.0920
G00 Z2.0000
G00 X124.5052 Y21.5000
G00 Z0.5000
G01 Z-4.0000
G01 Y20.0690
G01 X89.9080
G01 Y18.6380
G01 X111.9044
G01 X99.3036 Y17.2070
G01 X89.9080
G00 Z2.0000


;No. 33: Pocket side wall: Cutout 7
G00 X89.5900 Y15.7809 Z2.0000
G00 Z0.5000
G01 Z-4.0000 F180
G01 X89.5936 Y22.5809 F1200
G01 X130.4100 Y27.2191
G01 X130.4064 Y20.4191
G01 X89.5900 Y15.7809
G00 Z2.0000


;No. 34: Drill 4
G00 X132.0000 Y5.0000 Z2.0000
G00 Z0.5000
G01 Z-4.0000 F180
G00 Z2.0000


;No. 35: Drill 3
G00 X88.0000 Y5.0000 Z2.0000
G00 Z0.5000
G01 Z-4.0000 F180
G00 Z2.0000


;No. 36: Drill 1
G00 X88.0000 Y128.0000 Z2.0000
G00 Z0.5000
G01 Z-4.0000 F180
G00 Z2.0000


;No. 37: Drill 2
G00 X132.0000 Y128.0000 Z2.0000
G00 Z0.5000
G01 Z-4.0000 F180
G00 Z2.0000


;No. 38: Part 1
G00 X141.5900 Y70.8156 Z2.0000
G00 Z0.5000
G01 Z-4.0000 F180
G01 Y133.0000 F1200
G01 X141.5583 Y133.3159
G01 X141.4645 Y133.6192
G03 X139.9800 Y134.5900 I-1.4649 J-0.6196
G01 X112.0142
G00 Z0.0000
G01 X107.2442
G01 Z-4.0000 F180
G01 X80.0000 F1200
G03 X78.5830 Y133.7212 I0.0000 J-1.5900
G03 X78.4100 Y132.9800 I1.4197 J-0.7221
G01 Y71.0544
G00 Z0.0000
G01 Y66.2844
G01 Z-4.0000 F180
G01 Y0.0000 F1200
G01 X78.4417 Y-0.3159
G01 X78.5355 Y-0.6192
G03 X80.0200 Y-1.5900 I1.4649 J0.6196
G01 X108.1987
G00 Z0.0000
G01 X112.9687
G01 Z-4.0000 F180
G01 X140.0000 F1200
G03 X141.4170 Y-0.7212 I0.0000 J1.5900
G03 X141.5900 Y0.0200 I-1.4197 J0.7221
G01 Y66.0456
G00 Z0.0000
G01 Y70.8156
G00 Z2.0000


;No. 39: Drill 5
G00 X165.3333 Y126.4762 Z2.0000
G00 Z0.5000
G01 Z-4.0000 F180
G00 Z2.0000


;No. 40: Drill 6
G00 X209.3333 Y126.4762 Z2.0000
G00 Z0.5000
G01 Z-4.0000 F180
G00 Z2.0000


;No. 41: Drill 7
G00 X165.3333 Y3.4762 Z2.0000
G00 Z0.5000
G01 Z-4.0000 F180
G00 Z2.0000


;No. 42: Drill 8
G00 X209.3333 Y3.4762 Z2.0000
G00 Z0.5000
G01 Z-4.0000 F180
G00 Z2.0000


;No. 43: Part 2
G00 X218.9233 Y70.5349 Z2.0000
G00 Z0.5000
G01 Z-4.0000 F180
G01 Y131.4762 F1200
G01 X218.8916 Y131.7921
G01 X218.7978 Y132.0954
G03 X217.3133 Y133.0662 I-1.4649 J-0.6196
G01 X188.2521
G00 Z0.0000
G01 X183.4821
G01 Z-4.0000 F180
G01 X157.3333 F1200
G03 X155.8013 Y131.9015 I0.0000 J-1.5900
G01 X155.7665 Y131.7464
G01 X155.7433 Y131.4562
G01 Y60.9315
G00 Z0.0000
G01 Y56.1615
G01 Z-4.0000 F180
G01 Y-1.5238 F1200
G01 X155.7750 Y-1.8397
G01 X155.8688 Y-2.1430
G03 X157.3533 Y-3.1138 I1.4649 J0.6196
G01 X186.9227
G00 Z0.0000
G01 X191.6927
G01 Z-4.0000 F180
G01 X217.3333 F1200
G03 X218.7504 Y-2.2450 I0.0000 J1.5900
G03 X218.9233 Y-1.5038 I-1.4197 J0.7221
G01 Y65.7649
G00 Z0.0000
G01 Y70.5349
G00 Z2.0000


;No. 44: Drill 11
G00 X212.5923 Y155.8124 Z2.0000
G00 Z0.5000
G01 Z-4.0000 F180
G00 Z2.0000


;No. 45: Drill 13
G00 X168.5905 Y155.8124 Z2.0000
G00 Z0.5000
G01 Z-4.0000 F180
G00 Z2.0000


;No. 46: Drill 9
G00 X168.5905 Y212.3143 Z2.0000
G00 Z0.5000
G01 Z-4.0000 F180
G00 Z2.0000


;No. 47: Drill 10
G00 X212.5923 Y212.3161 Z2.0000
G00 Z0.5000
G01 Z-4.0000 F180
G00 Z2.0000


;No. 48: Part 3
G00 X222.1823 Y186.6304 Z2.0000
G00 Z0.5000
G01 Z-4.0000 F180
G01 Y217.3143 F1200
G03 X221.7001 Y218.4549 I-1.5900 J0.0000
G03 X220.5723 Y218.9043 I-1.1082 J-1.1413
G01 X192.8064
G00 Z0.0000
G01 X188.0364
G01 Z-4.0000 F180
G01 X160.5905 F1200
G03 X159.4499 Y218.4220 I0.0000 J-1.5900
G03 X159.0005 Y217.2943 I1.1413 J-1.1082
G01 Y186.8558
G00 Z0.0000
G01 Y182.0858
G01 Z-4.0000 F180
G01 Y150.8124 F1200
G03 X159.2782 Y149.9147 I1.5900 J0.0000
G03 X160.6105 Y149.2224 I1.3127 J0.8983
G01 X186.4585
G00 Z0.0000
G01 X191.2285
G01 Z-4.0000 F180
G01 X220.5923 F1200
G03 X221.7329 Y149.7047 I0.0000 J1.5900
G03 X222.1823 Y150.8324 I-1.1413 J1.1082
G01 Y181.8604
G00 Z0.0000
G01 Y186.6304
G00 Z2.0000


;No. 49: Drill 11
G00 X132.5923 Y155.8124 Z2.0000
G00 Z0.5000
G01 Z-4.0000 F180
G00 Z2.0000


;No. 50: Drill 13
G00 X88.5905 Y155.8124 Z2.0000
G00 Z0.5000
G01 Z-4.0000 F180
G00 Z2.0000


;No. 51: Drill 10
G00 X132.5923 Y212.3161 Z2.0000
G00 Z0.5000
G01 Z-4.0000 F180
G00 Z2.0000


;No. 52: Drill 9
G00 X88.5905 Y212.3143 Z2.0000
G00 Z0.5000
G01 Z-4.0000 F180
G00 Z2.0000


;No. 53: Part 3
G00 X142.1823 Y186.6304 Z2.0000
G00 Z0.5000
G01 Z-4.0000 F180
G01 Y217.3143 F1200
G03 X141.7001 Y218.4549 I-1.5900 J0.0000
G03 X140.5723 Y218.9043 I-1.1082 J-1.1413
G01 X112.8064
G00 Z0.0000
G01 X108.0364
G01 Z-4.0000 F180
G01 X80.5905 F1200
G03 X79.4499 Y218.4220 I0.0000 J-1.5900
G03 X79.0005 Y217.2943 I1.1413 J-1.1082
G01 Y186.8558
G00 Z0.0000
G01 Y182.0858
G01 Z-4.0000 F180
G01 Y150.8124 F1200
G03 X79.2782 Y149.9147 I1.5900 J0.0000
G03 X80.6105 Y149.2224 I1.3127 J0.8983
G01 X106.4585
G00 Z0.0000
G01 X111.2285
G01 Z-4.0000 F180
G01 X140.5923 F1200
G03 X141.7329 Y149.7047 I0.0000 J1.5900
G03 X142.1823 Y150.8324 I-1.1413 J1.1082
G01 Y181.8604
G00 Z0.0000
G01 Y186.6304
G00 Z2.0000


;No. 54: Drill 10
G00 X52.5923 Y212.3161 Z2.0000
G00 Z0.5000
G01 Z-4.0000 F180
G00 Z2.0000


;No. 55: Drill 9
G00 X8.5905 Y212.3143 Z2.0000
G00 Z0.5000
G01 Z-4.0000 F180
G00 Z2.0000


;No. 56: Drill 13
G00 X8.5905 Y155.8124 Z2.0000
G00 Z0.5000
G01 Z-4.0000 F180
G00 Z2.0000


;No. 57: Drill 11
G00 X52.5923 Y155.8124 Z2.0000
G00 Z0.5000
G01 Z-4.0000 F180
G00 Z2.0000


;No. 58: Part 3
G00 X62.1823 Y186.6304 Z2.0000
G00 Z0.5000
G01 Z-4.0000 F180
G01 Y217.3143 F1200
G03 X61.7001 Y218.4549 I-1.5900 J0.0000
G03 X60.5723 Y218.9043 I-1.1082 J-1.1413
G01 X32.8064
G00 Z0.0000
G01 X28.0364
G01 Z-4.0000 F180
G01 X0.5905 F1200
G03 X-0.5501 Y218.4220 I0.0000 J-1.5900
G03 X-0.9995 Y217.2943 I1.1413 J-1.1082
G01 Y186.8558
G00 Z0.0000
G01 Y182.0858
G01 Z-4.0000 F180
G01 Y150.8124 F1200
G03 X-0.7218 Y149.9147 I1.5900 J0.0000
G03 X0.6105 Y149.2224 I1.3127 J0.8983
G01 X26.4585
G00 Z0.0000
G01 X31.2285
G01 Z-4.0000 F180
G01 X60.5923 F1200
G03 X61.7329 Y149.7047 I0.0000 J1.5900
G03 X62.1823 Y150.8324 I-1.1413 J1.1082
G01 Y181.8604
G00 Z0.0000
G01 Y186.6304
G00 Z2.0000
G00 X0.0000 Y0.0000

M05
