;Project loidolt@gmail
;Created by Estlcam version 9 build 9.006
;Machining time about 12:01:42 AM hours

G90
M03 S24000
G00 X0.0000 Y0.0000 Z0.0000
G00 Z2.0000


;No. 1: Drill 10
G00 X56.6446 Y65.0829
G00 Z0.5000
G01 Z-5.0000 F180 S24000
G00 Z2.0000


;No. 2: Drill 9
G00 X12.6428 Y65.0810 Z2.0000
G00 Z0.5000
G01 Z-5.0000 F180
G00 Z2.0000


;No. 3: Drill 13
G00 X12.6428 Y8.5792 Z2.0000
G00 Z0.5000
G01 Z-5.0000 F180
G00 Z2.0000


;No. 4: Drill 11
G00 X56.6446 Y8.5792 Z2.0000
G00 Z0.5000
G01 Z-5.0000 F180
G00 Z2.0000


;No. 5: Part 3
G00 X66.2346 Y39.3971 Z2.0000
G00 Z0.5000
G01 Z-5.0000 F180
G01 Y70.0810 F1200
G03 X65.7524 Y71.2216 I-1.5900 J0.0000
G03 X64.6246 Y71.6710 I-1.1082 J-1.1413
G01 X36.8587
G00 Z0.0000
G01 X32.0887
G01 Z-5.0000 F180
G01 X4.6428 F1200
G03 X3.5022 Y71.1888 I0.0000 J-1.5900
G03 X3.0528 Y70.0610 I1.1413 J-1.1082
G01 Y39.6225
G00 Z0.0000
G01 Y34.8525
G01 Z-5.0000 F180
G01 Y3.5792 F1200
G03 X3.3305 Y2.6814 I1.5900 J0.0000
G03 X4.6628 Y1.9892 I1.3127 J0.8983
G01 X30.5108
G00 Z0.0000
G01 X35.2808
G01 Z-5.0000 F180
G01 X64.6446 F1200
G03 X65.7852 Y2.4714 I0.0000 J1.5900
G03 X66.2346 Y3.5992 I-1.1413 J1.1082
G01 Y34.6271
G00 Z0.0000
G01 Y39.3971
G00 Z2.0000
G00 X0.0000 Y0.0000

M05
