;Project loidolt@gmail
;Created by Estlcam version 9 build 9.006
;Machining time about 12:19:49 AM hours

G90
M03 S24000
G00 X0.0000 Y0.0000 Z0.0000
G00 Z2.0000


;No. 1: Helical pocket 1
G00 X259.3962 Y300.5630
G00 Z0.5000
G02 X257.2618 Y299.3307 Z-1.0000 I-1.4229 J0.0000 F180 S24000
G02 Y301.7953 Z-2.5000 I0.7115 J1.2323
G02 X259.3962 Y300.5630 Z-4.0000 I0.7115 J-1.2323
G02 X257.2618 Y299.3307 I-1.4229 J0.0000
G02 Y301.7953 I0.7115 J1.2323
G02 X259.3962 Y300.5630 I0.7115 J-1.2323
G00 Z2.0000


;No. 2: Helical pocket 2
G00 X93.6214 Y300.9951 Z2.0000
G00 Z0.5000
G02 X91.4870 Y299.7628 Z-1.0000 I-1.4229 J0.0000 F180
G02 Y302.2274 Z-2.5000 I0.7115 J1.2323
G02 X93.6214 Y300.9951 Z-4.0000 I0.7115 J-1.2323
G02 X91.4870 Y299.7628 I-1.4229 J0.0000
G02 Y302.2274 I0.7115 J1.2323
G02 X93.6214 Y300.9951 I0.7115 J-1.2323
G00 Z2.0000


;No. 3: Helical pocket 3
G00 X39.2857 Y222.8713 Z2.0000
G00 Z0.5000
G02 X37.1512 Y221.6390 Z-1.0000 I-1.4229 J0.0000 F180
G02 Y224.1036 Z-2.5000 I0.7115 J1.2323
G02 X39.2857 Y222.8713 Z-4.0000 I0.7115 J-1.2323
G02 X37.1512 Y221.6390 I-1.4229 J0.0000
G02 Y224.1036 I0.7115 J1.2323
G02 X39.2857 Y222.8713 I0.7115 J-1.2323
G00 Z2.0000


;No. 4: Helical pocket 4
G00 X10.5066 Y157.6362 Z2.0000
G00 Z0.5000
G02 X8.3916 Y156.4151 Z-1.0000 I-1.4100 J0.0000 F180
G02 Y158.8573 Z-2.5000 I0.7050 J1.2211
G02 X10.5066 Y157.6362 Z-4.0000 I0.7050 J-1.2211
G02 X8.3916 Y156.4151 I-1.4100 J0.0000
G02 Y158.8573 I0.7050 J1.2211
G02 X10.5066 Y157.6362 I0.7050 J-1.2211
G00 Z2.0000


;No. 5: Helical pocket 5
G00 X39.2865 Y92.3959 Z2.0000
G00 Z0.5000
G02 X37.1521 Y91.1636 Z-1.0000 I-1.4229 J0.0000 F180
G02 Y93.6282 Z-2.5000 I0.7115 J1.2323
G02 X39.2865 Y92.3959 Z-4.0000 I0.7115 J-1.2323
G02 X37.1521 Y91.1636 I-1.4229 J0.0000
G02 Y93.6282 I0.7115 J1.2323
G02 X39.2865 Y92.3959 I0.7115 J-1.2323
G00 Z2.0000


;No. 6: Helical pocket 6
G00 X93.2854 Y13.9953 Z2.0000
G00 Z0.5000
G02 X91.1510 Y12.7630 Z-1.0000 I-1.4229 J0.0000 F180
G02 Y15.2276 Z-2.5000 I0.7115 J1.2323
G02 X93.2854 Y13.9953 Z-4.0000 I0.7115 J-1.2323
G02 X91.1510 Y12.7630 I-1.4229 J0.0000
G02 Y15.2276 I0.7115 J1.2323
G02 X93.2854 Y13.9953 I0.7115 J-1.2323
G00 Z2.0000


;No. 7: Helical pocket 7
G00 X188.1508 Y6.1054 Z2.0000
G00 Z0.5000
G02 X186.0164 Y4.8731 Z-1.0000 I-1.4229 J0.0000 F180
G02 Y7.3377 Z-2.5000 I0.7115 J1.2323
G02 X188.1508 Y6.1054 Z-4.0000 I0.7115 J-1.2323
G02 X186.0164 Y4.8731 I-1.4229 J0.0000
G02 Y7.3377 I0.7115 J1.2323
G02 X188.1508 Y6.1054 I0.7115 J-1.2323
G00 Z2.0000


;No. 8: Helical pocket 8
G00 X259.0602 Y13.5688 Z2.0000
G00 Z0.5000
G02 X256.9258 Y12.3365 Z-1.0000 I-1.4229 J0.0000 F180
G02 Y14.8011 Z-2.5000 I0.7115 J1.2323
G02 X259.0602 Y13.5688 Z-4.0000 I0.7115 J-1.2323
G02 X256.9258 Y12.3365 I-1.4229 J0.0000
G02 Y14.8011 I0.7115 J1.2323
G02 X259.0602 Y13.5688 I0.7115 J-1.2323
G00 Z2.0000


;No. 9: Helical pocket 9
G00 X342.1572 Y156.9305 Z2.0000
G00 Z0.5000
G02 X340.0228 Y155.6982 Z-1.0000 I-1.4229 J0.0000 F180
G02 Y158.1628 Z-2.5000 I0.7115 J1.2323
G02 X342.1572 Y156.9305 Z-4.0000 I0.7115 J-1.2323
G02 X340.0228 Y155.6982 I-1.4229 J0.0000
G02 Y158.1628 I0.7115 J1.2323
G02 X342.1572 Y156.9305 I0.7115 J-1.2323
G00 Z2.0000


;No. 10: Drill 1
G00 X257.9733 Y300.5630 Z2.0000
G00 Z-4.5000
G01 Z-10.0000 F180
G00 Z-4.5000
G00 Z-9.5000
G01 Z-15.0000
G00 Z-4.5000
G00 Z-14.5000
G01 Z-16.0000
G00 Z2.0000


;No. 11: Drill 2
G00 X92.1984 Y300.9951 Z2.0000
G00 Z-3.5000
G01 Z-9.0000 F180
G00 Z-3.5000
G00 Z-8.5000
G01 Z-14.0000
G00 Z-3.5000
G00 Z-13.5000
G01 Z-15.0000
G00 Z2.0000


;No. 12: Drill 3
G00 X37.8627 Y222.8713 Z2.0000
G00 Z-3.5000
G01 Z-9.0000 F180
G00 Z-3.5000
G00 Z-8.5000
G01 Z-14.0000
G00 Z-3.5000
G00 Z-13.5000
G01 Z-15.0000
G00 Z2.0000


;No. 13: Drill 4
G00 X9.0966 Y157.6362 Z2.0000
G00 Z-3.5000
G01 Z-9.0000 F180
G00 Z-3.5000
G00 Z-8.5000
G01 Z-14.0000
G00 Z-3.5000
G00 Z-13.5000
G01 Z-15.0000
G00 Z2.0000


;No. 14: Drill 5
G00 X37.8636 Y92.3959 Z2.0000
G00 Z-3.5000
G01 Z-9.0000 F180
G00 Z-3.5000
G00 Z-8.5000
G01 Z-14.0000
G00 Z-3.5000
G00 Z-13.5000
G01 Z-15.0000
G00 Z2.0000


;No. 15: Drill 6
G00 X91.8625 Y13.9953 Z2.0000
G00 Z-3.5000
G01 Z-9.0000 F180
G00 Z-3.5000
G00 Z-8.5000
G01 Z-14.0000
G00 Z-3.5000
G00 Z-13.5000
G01 Z-15.0000
G00 Z2.0000


;No. 16: Drill 7
G00 X186.7279 Y6.1054 Z2.0000
G00 Z-3.5000
G01 Z-9.0000 F180
G00 Z-3.5000
G00 Z-8.5000
G01 Z-14.0000
G00 Z-3.5000
G00 Z-13.5000
G01 Z-15.0000
G00 Z2.0000


;No. 17: Drill 8
G00 X257.6373 Y13.5688 Z2.0000
G00 Z-3.5000
G01 Z-9.0000 F180
G00 Z-3.5000
G00 Z-8.5000
G01 Z-14.0000
G00 Z-3.5000
G00 Z-13.5000
G01 Z-15.0000
G00 Z2.0000


;No. 18: Drill 9
G00 X340.7343 Y156.9305 Z2.0000
G00 Z-3.5000
G01 Z-9.0000 F180
G00 Z-3.5000
G00 Z-8.5000
G01 Z-14.0000
G00 Z-3.5000
G00 Z-13.5000
G01 Z-15.0000
G00 Z2.0000


;No. 19: Part 1
G00 X170.3959 Y315.9026 Z2.0000
G00 Z0.5000
G01 Z-5.0000 F180
G01 X108.6609 Y315.9571 F1200
G01 X104.7502 Y315.7844
G01 X101.1370 Y315.3119
G01 X97.4225 Y314.4980
G01 X93.7931 Y313.3634
G01 X90.2764 Y311.9168
G01 X86.8991 Y310.1693
G01 X83.5575 Y308.0424
G01 X80.6645 Y305.8265
G01 X77.7430 Y303.1517
G01 X75.1773 Y300.3451
G01 X72.9565 Y297.4560
G01 X70.9184 Y294.2742
G01 X45.4236 Y250.2039
G00 Z0.0000
G01 X41.3274 Y243.1233
G01 Z-5.0000 F180
G01 X4.2261 Y178.9900 F1200
G01 X2.5407 Y175.7592
G01 X1.0769 Y172.2496
G01 X-0.0755 Y168.6258
G01 X-0.9076 Y164.9154
G01 X-1.4132 Y161.1465
G01 X-1.5877 Y157.1892
G01 X-1.4319 Y153.5485
G01 X-0.9448 Y149.7773
G01 X-0.1309 Y146.0628
G01 X1.0587 Y142.2845
G01 X2.4503 Y138.9167
G01 X4.1867 Y135.5607
G01 X32.5583 Y86.3194
G00 Z0.0000
G01 X36.6421 Y79.2317
G01 Z-5.0000 F180
G01 X70.6217 Y20.2571 F1200
G01 X72.6349 Y17.0863
G01 X75.0450 Y13.9428
G01 X77.5045 Y11.2540
G01 X80.3018 Y8.6781
G01 X83.3129 Y6.3558
G01 X86.6528 Y4.2261
G01 X89.8836 Y2.5407
G01 X93.3932 Y1.0769
G01 X97.0170 Y-0.0755
G01 X100.8838 Y-0.9345
G01 X104.4963 Y-1.4132
G01 X108.3856 Y-1.5900
G01 X174.3643
G00 Z0.0000
G01 X182.5443
G01 Z-5.0000 F180
G01 X245.0288 F1200
G01 X245.2726 Y-1.5713
G01 X248.8859 Y-1.0572
G01 X252.5825 Y-0.2457
G01 X256.2119 Y0.8889
G01 X259.8722 Y2.4032
G01 X263.1059 Y4.0830
G01 X266.3180 Y6.1183
G01 X269.3405 Y8.4258
G01 X272.2621 Y11.1006
G01 X274.8277 Y13.9072
G01 X277.0485 Y16.7963
G01 X279.0866 Y19.9781
G01 X314.7914 Y81.6947
G00 Z0.0000
G01 X318.8876 Y88.7752
G01 Z-5.0000 F180
G01 X345.7250 Y135.1642 F1200
G01 X347.5307 Y138.6373
G01 X348.9282 Y142.0027
G01 X350.0805 Y145.6265
G01 X350.9127 Y149.3369
G01 X351.4183 Y153.1058
G01 X351.5927 Y157.0631
G01 X351.4369 Y160.7037
G01 X350.9498 Y164.4750
G01 X350.1359 Y168.1895
G01 X348.9464 Y171.9678
G01 X347.5548 Y175.3356
G01 X345.8183 Y178.6916
G01 X316.9465 Y228.8010
G00 Z0.0000
G01 X312.8628 Y235.8887
G01 Z-5.0000 F180
G01 X279.3833 Y293.9952 F1200
G01 X277.2785 Y297.2955
G01 X275.0626 Y300.1885
G01 X272.5005 Y302.9983
G01 X269.5812 Y305.6756
G01 X266.6921 Y307.8965
G01 X263.4901 Y309.9475
G01 X259.9773 Y311.7780
G01 X256.6118 Y313.1754
G01 X252.9880 Y314.3278
G01 X249.1212 Y315.1868
G01 X245.5088 Y315.6655
G01 X241.7342 Y315.8397
G01 X178.5759 Y315.8954
G00 Z0.0000
G01 X170.3959 Y315.9026
G00 Z-4.5000
G01 Z-10.0000 F180
G01 X108.6609 Y315.9571 F1200
G01 X104.7502 Y315.7844
G01 X101.1370 Y315.3119
G01 X97.4225 Y314.4980
G01 X93.7931 Y313.3634
G01 X90.2764 Y311.9168
G01 X86.8991 Y310.1693
G01 X83.5575 Y308.0424
G01 X80.6645 Y305.8265
G01 X77.7430 Y303.1517
G01 X75.1773 Y300.3451
G01 X72.9565 Y297.4560
G01 X70.9184 Y294.2742
G01 X45.4236 Y250.2039
G00 Z0.0000
G01 X41.3274 Y243.1233
G00 Z-4.5000
G01 Z-10.0000 F180
G01 X4.2261 Y178.9900 F1200
G01 X2.5407 Y175.7592
G01 X1.0769 Y172.2496
G01 X-0.0755 Y168.6258
G01 X-0.9076 Y164.9154
G01 X-1.4132 Y161.1465
G01 X-1.5877 Y157.1892
G01 X-1.4319 Y153.5485
G01 X-0.9448 Y149.7773
G01 X-0.1309 Y146.0628
G01 X1.0587 Y142.2845
G01 X2.4503 Y138.9167
G01 X4.1867 Y135.5607
G01 X32.5583 Y86.3194
G00 Z0.0000
G01 X36.6421 Y79.2317
G00 Z-4.5000
G01 Z-10.0000 F180
G01 X70.6217 Y20.2571 F1200
G01 X72.6349 Y17.0863
G01 X75.0450 Y13.9428
G01 X77.5045 Y11.2540
G01 X80.3018 Y8.6781
G01 X83.3129 Y6.3558
G01 X86.6528 Y4.2261
G01 X89.8836 Y2.5407
G01 X93.3932 Y1.0769
G01 X97.0170 Y-0.0755
G01 X100.8838 Y-0.9345
G01 X104.4963 Y-1.4132
G01 X108.3856 Y-1.5900
G01 X174.3643
G00 Z0.0000
G01 X182.5443
G00 Z-4.5000
G01 Z-10.0000 F180
G01 X245.0288 F1200
G01 X245.2726 Y-1.5713
G01 X248.8859 Y-1.0572
G01 X252.5825 Y-0.2457
G01 X256.2119 Y0.8889
G01 X259.8722 Y2.4032
G01 X263.1059 Y4.0830
G01 X266.3180 Y6.1183
G01 X269.3405 Y8.4258
G01 X272.2621 Y11.1006
G01 X274.8277 Y13.9072
G01 X277.0485 Y16.7963
G01 X279.0866 Y19.9781
G01 X314.7914 Y81.6947
G00 Z0.0000
G01 X318.8876 Y88.7752
G00 Z-4.5000
G01 Z-10.0000 F180
G01 X345.7250 Y135.1642 F1200
G01 X347.5307 Y138.6373
G01 X348.9282 Y142.0027
G01 X350.0805 Y145.6265
G01 X350.9127 Y149.3369
G01 X351.4183 Y153.1058
G01 X351.5927 Y157.0631
G01 X351.4369 Y160.7037
G01 X350.9498 Y164.4750
G01 X350.1359 Y168.1895
G01 X348.9464 Y171.9678
G01 X347.5548 Y175.3356
G01 X345.8183 Y178.6916
G01 X316.9465 Y228.8010
G00 Z0.0000
G01 X312.8628 Y235.8887
G00 Z-4.5000
G01 Z-10.0000 F180
G01 X279.3833 Y293.9952 F1200
G01 X277.2785 Y297.2955
G01 X275.0626 Y300.1885
G01 X272.5005 Y302.9983
G01 X269.5812 Y305.6756
G01 X266.6921 Y307.8965
G01 X263.4901 Y309.9475
G01 X259.9773 Y311.7780
G01 X256.6118 Y313.1754
G01 X252.9880 Y314.3278
G01 X249.1212 Y315.1868
G01 X245.5088 Y315.6655
G01 X241.7342 Y315.8397
G01 X178.5759 Y315.8954
G00 Z0.0000
G01 X170.3959 Y315.9026
G00 Z-9.5000
G01 Z-15.0000 F180
G01 X108.6609 Y315.9571 F1200
G01 X104.7502 Y315.7844
G01 X101.1370 Y315.3119
G01 X97.4225 Y314.4980
G01 X93.7931 Y313.3634
G01 X90.2764 Y311.9168
G01 X86.8991 Y310.1693
G01 X83.5575 Y308.0424
G01 X80.6645 Y305.8265
G01 X77.7430 Y303.1517
G01 X75.1773 Y300.3451
G01 X72.9565 Y297.4560
G01 X70.9184 Y294.2742
G01 X45.4236 Y250.2039
G00 Z0.0000
G01 X41.3274 Y243.1233
G00 Z-9.5000
G01 Z-15.0000 F180
G01 X4.2261 Y178.9900 F1200
G01 X2.5407 Y175.7592
G01 X1.0769 Y172.2496
G01 X-0.0755 Y168.6258
G01 X-0.9076 Y164.9154
G01 X-1.4132 Y161.1465
G01 X-1.5877 Y157.1892
G01 X-1.4319 Y153.5485
G01 X-0.9448 Y149.7773
G01 X-0.1309 Y146.0628
G01 X1.0587 Y142.2845
G01 X2.4503 Y138.9167
G01 X4.1867 Y135.5607
G01 X32.5583 Y86.3194
G00 Z0.0000
G01 X36.6421 Y79.2317
G00 Z-9.5000
G01 Z-15.0000 F180
G01 X70.6217 Y20.2571 F1200
G01 X72.6349 Y17.0863
G01 X75.0450 Y13.9428
G01 X77.5045 Y11.2540
G01 X80.3018 Y8.6781
G01 X83.3129 Y6.3558
G01 X86.6528 Y4.2261
G01 X89.8836 Y2.5407
G01 X93.3932 Y1.0769
G01 X97.0170 Y-0.0755
G01 X100.8838 Y-0.9345
G01 X104.4963 Y-1.4132
G01 X108.3856 Y-1.5900
G01 X174.3643
G00 Z0.0000
G01 X182.5443
G00 Z-9.5000
G01 Z-15.0000 F180
G01 X245.0288 F1200
G01 X245.2726 Y-1.5713
G01 X248.8859 Y-1.0572
G01 X252.5825 Y-0.2457
G01 X256.2119 Y0.8889
G01 X259.8722 Y2.4032
G01 X263.1059 Y4.0830
G01 X266.3180 Y6.1183
G01 X269.3405 Y8.4258
G01 X272.2621 Y11.1006
G01 X274.8277 Y13.9072
G01 X277.0485 Y16.7963
G01 X279.0866 Y19.9781
G01 X314.7914 Y81.6947
G00 Z0.0000
G01 X318.8876 Y88.7752
G00 Z-9.5000
G01 Z-15.0000 F180
G01 X345.7250 Y135.1642 F1200
G01 X347.5307 Y138.6373
G01 X348.9282 Y142.0027
G01 X350.0805 Y145.6265
G01 X350.9127 Y149.3369
G01 X351.4183 Y153.1058
G01 X351.5927 Y157.0631
G01 X351.4369 Y160.7037
G01 X350.9498 Y164.4750
G01 X350.1359 Y168.1895
G01 X348.9464 Y171.9678
G01 X347.5548 Y175.3356
G01 X345.8183 Y178.6916
G01 X316.9465 Y228.8010
G00 Z0.0000
G01 X312.8628 Y235.8887
G00 Z-9.5000
G01 Z-15.0000 F180
G01 X279.3833 Y293.9952 F1200
G01 X277.2785 Y297.2955
G01 X275.0626 Y300.1885
G01 X272.5005 Y302.9983
G01 X269.5812 Y305.6756
G01 X266.6921 Y307.8965
G01 X263.4901 Y309.9475
G01 X259.9773 Y311.7780
G01 X256.6118 Y313.1754
G01 X252.9880 Y314.3278
G01 X249.1212 Y315.1868
G01 X245.5088 Y315.6655
G01 X241.7342 Y315.8397
G01 X178.5759 Y315.8954
G00 Z0.0000
G01 X170.3959 Y315.9026
G00 Z2.0000
G00 X0.0000 Y0.0000

M05
